X:6890
T:Haste to the Wedding
R:jig
M:6/8
K:D
A |\
"D"A>BA Agf | "A7"ede "D"fdB | "D"A>BA AdF | "A7"GFG "A7"E2G |\
"D"A>BA Agf | "A7"ede "D"fdB | "D"AFA "A7"faf | "D"ddd d2 :|
a |\
"D"afa afa | "G"bgb bgb | "D"afa afa | "Em"g>fg "A7"efg |\
"D"a3 f3 | "A7"ede "D"fdB | "D"AFA "A7"faf | "D"ddd d2 :|


